X:0310
M:6/8
L:1/8
Q:3/8=120
P:ABCA % Aird prints a da capo
K:G
P:A
d3  Bcd|c3  ABc|Bdc BAG|FAG FED |
d3  Bcd|c3  ABc|Bed cBA|G3  G3 ||
P:B
P:C
ggg eee|fff ddd|BBB ccc|d3  def |\
ggg eee|fff ddd|BBB ccc|d3  cBA||

